Potential Energy Well.svg

<?xml version="1.0" encoding="UTF-8" standalone="no"?>
<!-- Created with Inkscape (http://www.inkscape.org/) -->
<svg
   xmlns:dc="http://purl.org/dc/elements/1.1/"
   xmlns:cc="http://web.resource.org/cc/"
   xmlns:rdf="http://www.w3.org/1999/02/22-rdf-syntax-ns#"
   xmlns:svg="http://www.w3.org/2000/svg"
   xmlns="http://www.w3.org/2000/svg"
   xmlns:sodipodi="http://sodipodi.sourceforge.net/DTD/sodipodi-0.dtd"
   xmlns:inkscape="http://www.inkscape.org/namespaces/inkscape"
   width="535"
   height="350"
   id="svg5423"
   sodipodi:version="0.32"
   inkscape:version="0.44.1"
   version="1.0"
   sodipodi:docbase="/Users/bdesham/Documents/Miscellaneous/Commons images"
   sodipodi:docname="Potential energy well (export).svg">
  <defs
     id="defs5425">
    <marker
       inkscape:stockid="Arrow1Mend"
       orient="auto"
       refY="0"
       refX="0"
       id="Arrow1Mend"
       style="overflow:visible">
      <path
         id="path2948"
         d="M 0,0 L 5,-5 L -12.5,0 L 5,5 L 0,0 z "
         style="fill-rule:evenodd;stroke:black;stroke-width:1pt;marker-start:none"
         transform="matrix(-0.4,0,0,-0.4,-4,0)" />
    </marker>
    <marker
       inkscape:stockid="Arrow1Mstart"
       orient="auto"
       refY="0"
       refX="0"
       id="Arrow1Mstart"
       style="overflow:visible">
      <path
         id="path2951"
         d="M 0,0 L 5,-5 L -12.5,0 L 5,5 L 0,0 z "
         style="fill-rule:evenodd;stroke:black;stroke-width:1pt;marker-start:none"
         transform="matrix(0.4,0,0,0.4,4,0)" />
    </marker>
  </defs>
  <sodipodi:namedview
     id="base"
     pagecolor="#ffffff"
     bordercolor="#666666"
     borderopacity="1.0"
     gridtolerance="10000"
     guidetolerance="10"
     objecttolerance="10"
     inkscape:pageopacity="0.0"
     inkscape:pageshadow="2"
     inkscape:zoom="1.4064074"
     inkscape:cx="318.89763"
     inkscape:cy="184.15715"
     inkscape:document-units="px"
     inkscape:current-layer="layer1"
     width="535px"
     height="350px"
     gridspacingx="1cm"
     gridspacingy="1cm"
     grid_units="cm"
     showgrid="true"
     inkscape:grid-points="true"
     inkscape:window-width="1440"
     inkscape:window-height="785"
     inkscape:window-x="0"
     inkscape:window-y="22" />
  <metadata
     id="metadata5428">
    <rdf:RDF>
      <cc:Work
         rdf:about="">
        <dc:format>image/svg+xml</dc:format>
        <dc:type
           rdf:resource="http://purl.org/dc/dcmitype/StillImage" />
      </cc:Work>
    </rdf:RDF>
  </metadata>
  <g
     inkscape:label="Layer 1"
     inkscape:groupmode="layer"
     id="layer1"
     transform="translate(-42.54339,-32.75012)">
    <g
       id="g2084"
       transform="translate(3.932131,2.764034)">
      <path
         style="fill:black;fill-opacity:1;stroke:none;stroke-width:2.49999976;stroke-linecap:butt;stroke-linejoin:miter;stroke-miterlimit:4;stroke-dashoffset:0;stroke-opacity:1"
         d="M 69.5,36.75 C 69.484463,36.753096 67,37.694181 67,354.34375 L 67,355.59375 L 68.25,355.59375 L 566.9375,355.59375 L 566.9375,353.09375 L 69.5,353.09375 C 69.5,195.69692 69.5,115.93303 69.5,76.40625 C 69.5,56.553576 69.499999,46.619418 69.5,41.65625 C 69.5,39.174666 69.5,37.932896 69.5,37.3125 C 69.5,37.002302 69.5,36.827549 69.5,36.75 z "
         id="path5439" />
      <path
         style="fill-rule:evenodd;stroke:black;stroke-width:0.4pt;marker-start:none"
         d="M 68.257176,46.687911 L 73.257176,51.687911 L 68.257176,34.187912 L 63.257176,51.687911 L 68.257176,46.687911 z "
         id="path2090" />
      <path
         style="fill-rule:evenodd;stroke:black;stroke-width:0.4pt;marker-start:none"
         d="M 556.92913,354.3307 L 551.92913,359.3307 L 569.42913,354.3307 L 551.92913,349.3307 L 556.92913,354.3307 z "
         id="path2092" />
    </g>
    <path
       style="fill:#888a85;fill-opacity:1;stroke:none;stroke-width:2.5;stroke-linecap:square;stroke-linejoin:miter;stroke-miterlimit:4;stroke-dashoffset:0;stroke-opacity:1"
       d="M 73.557131,214.10779 L 73.557131,216.60779 L 74.807131,216.60779 L 570.86963,216.60779 L 572.11963,216.60779 L 572.11963,214.10779 L 570.86963,214.10779 L 74.807131,214.10779 L 73.557131,214.10779 z "
       id="path5443" />
    <path
       style="fill:#888a85;fill-opacity:1;stroke:none;stroke-width:2.5;stroke-linecap:butt;stroke-linejoin:miter;stroke-miterlimit:4;stroke-dasharray:5, 2.5;stroke-dashoffset:0;stroke-opacity:1"
       d="M 192.83838,220.35779 L 195.33838,220.35779 L 195.33838,215.35779 L 192.83838,215.35779 L 192.83838,220.35779 z M 192.83838,227.85779 L 195.33838,227.85779 L 195.33838,222.85779 L 192.83838,222.85779 L 192.83838,227.85779 z M 192.83838,235.35779 L 195.33838,235.35779 L 195.33838,230.35779 L 192.83838,230.35779 L 192.83838,235.35779 z M 192.83838,242.85779 L 195.33838,242.85779 L 195.33838,237.85779 L 192.83838,237.85779 L 192.83838,242.85779 z M 192.83838,250.35779 L 195.33838,250.35779 L 195.33838,245.35779 L 192.83838,245.35779 L 192.83838,250.35779 z M 192.83838,257.85779 L 195.33838,257.85779 L 195.33838,252.85779 L 192.83838,252.85779 L 192.83838,257.85779 z M 192.83838,265.35779 L 195.33838,265.35779 L 195.33838,260.35779 L 192.83838,260.35779 L 192.83838,265.35779 z M 192.83838,272.85779 L 195.33838,272.85779 L 195.33838,267.85779 L 192.83838,267.85779 L 192.83838,272.85779 z M 192.83838,280.35779 L 195.33838,280.35779 L 195.33838,275.35779 L 192.83838,275.35779 L 192.83838,280.35779 z M 192.83838,287.85779 L 195.33838,287.85779 L 195.33838,282.85779 L 192.83838,282.85779 L 192.83838,287.85779 z M 192.83838,295.35779 L 195.33838,295.35779 L 195.33838,290.35779 L 192.83838,290.35779 L 192.83838,295.35779 z M 192.83838,302.85779 L 195.33838,302.85779 L 195.33838,297.85779 L 192.83838,297.85779 L 192.83838,302.85779 z M 192.83838,310.35779 L 195.33838,310.35779 L 195.33838,305.35779 L 192.83838,305.35779 L 192.83838,310.35779 z M 192.83838,317.85779 L 195.33838,317.85779 L 195.33838,312.85779 L 192.83838,312.85779 L 192.83838,317.85779 z M 192.83838,325.35779 L 195.33838,325.35779 L 195.33838,320.35779 L 192.83838,320.35779 L 192.83838,325.35779 z M 192.83838,332.85779 L 195.33838,332.85779 L 195.33838,327.85779 L 192.83838,327.85779 L 192.83838,332.85779 z M 192.83838,340.35779 L 195.33838,340.35779 L 195.33838,335.35779 L 192.83838,335.35779 L 192.83838,340.35779 z M 192.83838,347.85779 L 195.33838,347.85779 L 195.33838,342.85779 L 192.83838,342.85779 L 192.83838,347.85779 z M 192.83838,355.35779 L 195.33838,355.35779 L 195.33838,350.35779 L 192.83838,350.35779 L 192.83838,355.35779 z "
       id="path5445" />
    <path
       style="fill:#888a85;fill-opacity:1;stroke:none;stroke-width:2.5;stroke-linecap:butt;stroke-linejoin:miter;stroke-miterlimit:4;stroke-dasharray:5, 2.5;stroke-dashoffset:0;stroke-opacity:1"
       d="M 442.30713,220.35779 L 444.80713,220.35779 L 444.80713,215.35779 L 442.30713,215.35779 L 442.30713,220.35779 z M 442.30713,227.85779 L 444.80713,227.85779 L 444.80713,222.85779 L 442.30713,222.85779 L 442.30713,227.85779 z M 442.30713,235.35779 L 444.80713,235.35779 L 444.80713,230.35779 L 442.30713,230.35779 L 442.30713,235.35779 z M 442.30713,242.85779 L 444.80713,242.85779 L 444.80713,237.85779 L 442.30713,237.85779 L 442.30713,242.85779 z M 442.30713,250.35779 L 444.80713,250.35779 L 444.80713,245.35779 L 442.30713,245.35779 L 442.30713,250.35779 z M 442.30713,257.85779 L 444.80713,257.85779 L 444.80713,252.85779 L 442.30713,252.85779 L 442.30713,257.85779 z M 442.30713,265.35779 L 444.80713,265.35779 L 444.80713,260.35779 L 442.30713,260.35779 L 442.30713,265.35779 z M 442.30713,272.85779 L 444.80713,272.85779 L 444.80713,267.85779 L 442.30713,267.85779 L 442.30713,272.85779 z M 442.30713,280.35779 L 444.80713,280.35779 L 444.80713,275.35779 L 442.30713,275.35779 L 442.30713,280.35779 z M 442.30713,287.85779 L 444.80713,287.85779 L 444.80713,282.85779 L 442.30713,282.85779 L 442.30713,287.85779 z M 442.30713,295.35779 L 444.80713,295.35779 L 444.80713,290.35779 L 442.30713,290.35779 L 442.30713,295.35779 z M 442.30713,302.85779 L 444.80713,302.85779 L 444.80713,297.85779 L 442.30713,297.85779 L 442.30713,302.85779 z M 442.30713,310.35779 L 444.80713,310.35779 L 444.80713,305.35779 L 442.30713,305.35779 L 442.30713,310.35779 z M 442.30713,317.85779 L 444.80713,317.85779 L 444.80713,312.85779 L 442.30713,312.85779 L 442.30713,317.85779 z M 442.30713,325.35779 L 444.80713,325.35779 L 444.80713,320.35779 L 442.30713,320.35779 L 442.30713,325.35779 z M 442.30713,332.85779 L 444.80713,332.85779 L 444.80713,327.85779 L 442.30713,327.85779 L 442.30713,332.85779 z M 442.30713,340.35779 L 444.80713,340.35779 L 444.80713,335.35779 L 442.30713,335.35779 L 442.30713,340.35779 z M 442.30713,347.85779 L 444.80713,347.85779 L 444.80713,342.85779 L 442.30713,342.85779 L 442.30713,347.85779 z M 442.30713,355.35779 L 444.80713,355.35779 L 444.80713,350.35779 L 442.30713,350.35779 L 442.30713,355.35779 z "
       id="path5447" />
    <path
       style="fill:black;fill-opacity:1;stroke:none;stroke-width:2.49999976;stroke-linecap:square;stroke-linejoin:miter;stroke-miterlimit:4;stroke-dashoffset:0;stroke-opacity:1"
       d="M 72.213381,110.32654 C 72.213381,110.32654 72.213228,112.82654 72.213381,112.82654 C 72.2203,112.82654 72.234734,112.82654 72.244631,112.82654 C 72.261887,112.82654 72.32683,112.82654 72.650881,112.82654 L 73.557131,112.82654 C 74.425756,112.82654 75.64959,112.82654 79.182131,112.82654 C 87.385477,112.82654 105.09813,112.82654 143.15088,112.82654 C 152.38718,112.82654 159.14568,115.94947 164.49463,121.51404 C 169.84358,127.07861 173.73035,135.1721 176.86963,144.98279 C 183.14819,164.60417 186.31878,191.00392 192.65088,217.51404 C 198.98298,244.02416 208.5127,270.69927 227.71338,290.76404 C 246.91406,310.82881 275.79851,324.17029 320.33838,324.17029 C 364.87825,324.17029 393.27387,310.80744 411.90088,290.73279 C 430.52789,270.65814 439.34458,244.01845 445.21338,217.51404 C 451.08218,191.00963 454.03769,164.58242 460.65088,144.98279 C 463.95748,135.18297 468.18449,127.11703 474.02588,121.54529 C 479.86727,115.97355 487.31198,112.82654 497.49463,112.82654 C 497.49463,112.82654 569.61963,112.82654 569.61963,112.82654 L 570.86963,112.82654 L 570.86963,110.32654 L 569.61963,110.32654 C 569.61963,110.32654 497.49463,110.32654 497.49463,110.32654 C 486.7851,110.32654 478.55196,113.74642 472.27588,119.73279 C 465.9998,125.71916 461.65478,134.18745 458.27588,144.20154 C 451.51809,164.22972 448.60665,190.61887 442.77588,216.95154 C 436.94511,243.28421 428.23151,269.49212 410.08838,289.04529 C 391.94525,308.59846 364.38119,321.67029 320.33838,321.67029 C 276.29557,321.67029 248.24644,308.57709 229.52588,289.01404 C 210.80532,269.45099 201.37673,243.27851 195.08838,216.95154 C 188.80003,190.62457 185.67765,164.20798 179.27588,144.20154 C 176.075,134.19832 172.03718,125.75758 166.27588,119.76404 C 160.51458,113.7705 152.965,110.32654 143.15088,110.32654 C 105.09813,110.32654 87.385477,110.32654 79.182131,110.32654 C 75.64959,110.32654 74.425756,110.32654 73.557131,110.32654 L 72.650881,110.32654 C 72.326829,110.32654 72.262114,110.32654 72.244631,110.32654 C 72.234734,110.32654 72.220299,110.32654 72.213381,110.32654 z "
       id="path5441" />
    <path
       style="font-size:24px;font-style:normal;font-weight:normal;fill:black;fill-opacity:1;stroke:none;stroke-width:1px;stroke-linecap:butt;stroke-linejoin:miter;stroke-opacity:1;font-family:DejaVu Serif"
       d="M 93.632311,83.123432 L 96.198717,96.553119 L 103.95653,83.123432 L 101.98778,83.123432 L 102.23387,81.869526 L 107.36669,81.869526 L 107.12059,83.123432 L 105.42137,83.123432 L 96.022936,99.365619 L 94.007311,99.365619 L 90.948717,83.123432 L 89.202624,83.123432 L 89.448717,81.869526 L 95.823717,81.869526 L 95.577624,83.123432 L 93.632311,83.123432 M 112.97997,103.10391 C 111.08152,102.25233 109.64793,100.90468 108.67919,99.060932 C 107.71043,97.209372 107.22606,94.896874 107.22606,92.123432 C 107.22606,89.342192 107.71043,87.029694 108.67919,85.185932 C 109.64793,83.334385 111.08152,81.982824 112.97997,81.131244 L 112.97997,82.279682 C 111.77683,83.107823 110.91355,84.275791 110.39012,85.783588 C 109.86668,87.2836 109.60496,89.396879 109.60497,92.123432 C 109.60496,94.842186 109.86668,96.955466 110.39012,98.463276 C 110.91355,99.963275 111.77683,101.12734 112.97997,101.95546 L 112.97997,103.10391 M 116.23778,99.365619 L 114.77294,99.365619 L 120.26903,93.389057 L 117.5034,88.162494 L 115.96825,88.162494 L 116.20262,86.908588 L 119.36669,86.908588 L 121.95653,91.760151 L 126.42137,86.908588 L 127.88622,86.908588 L 122.49559,92.767963 L 125.34325,98.123432 L 126.97215,98.123432 L 126.73778,99.365619 L 123.46825,99.365619 L 120.81981,94.396869 L 116.23778,99.365619 M 129.90184,103.10391 L 129.90184,101.95546 C 131.10496,101.12734 131.96824,99.963275 132.49169,98.463276 C 133.02293,96.955466 133.28855,94.842186 133.28856,92.123432 C 133.28855,89.396879 133.02293,87.2836 132.49169,85.783588 C 131.96824,84.275791 131.10496,83.107823 129.90184,82.279682 L 129.90184,81.131244 C 131.80809,81.982824 133.24559,83.334385 134.21434,85.185932 C 135.18308,87.029694 135.66746,89.342192 135.66747,92.123432 C 135.66746,94.896874 135.18308,97.209372 134.21434,99.060932 C 133.24559,100.90468 131.80809,102.25233 129.90184,103.10391"
       id="text5455" />
    <path
       style="font-size:24px;font-style:normal;font-weight:normal;fill:black;fill-opacity:1;stroke:none;stroke-width:1px;stroke-linecap:butt;stroke-linejoin:miter;stroke-opacity:1;font-family:DejaVu Serif"
       d="M 48.699534,223.34873 L 48.933909,222.10654 L 51.160471,222.10654 L 54.07844,207.10654 L 51.851877,207.10654 L 52.097971,205.85263 L 66.183909,205.85263 L 65.433909,209.74326 L 63.992502,209.74326 L 64.461252,207.29404 L 56.42219,207.29404 L 55.285471,213.15341 L 61.01594,213.15341 L 61.437815,210.96201 L 62.879221,210.96201 L 61.754221,216.77451 L 60.312815,216.77451 L 60.73469,214.5831 L 55.004221,214.5831 L 53.586252,221.90732 L 61.812815,221.90732 L 62.281565,219.4581 L 63.722971,219.4581 L 62.972971,223.34873 L 48.699534,223.34873"
       id="text5469" />
    <path
       style="font-size:24px;font-style:normal;font-weight:normal;fill:black;fill-opacity:1;stroke:none;stroke-width:1px;stroke-linecap:butt;stroke-linejoin:miter;stroke-opacity:1;font-family:DejaVu Serif"
       d="M 184.19071,377.44992 L 182.72586,377.44992 L 188.22196,371.47336 L 185.45633,366.2468 L 183.92117,366.2468 L 184.15555,364.99289 L 187.31961,364.99289 L 189.90946,369.84445 L 194.3743,364.99289 L 195.83914,364.99289 L 190.44852,370.85227 L 193.29617,376.20774 L 194.92508,376.20774 L 194.69071,377.44992 L 191.42117,377.44992 L 188.77274,372.48117 L 184.19071,377.44992 M 198.42899,377.44992 L 198.42899,376.6218 L 200.46024,376.6218 L 200.46024,366.91867 L 198.10867,368.44211 L 198.10867,367.41867 L 200.95242,365.57492 L 202.03055,365.57492 L 202.03055,376.6218 L 204.0618,376.6218 L 204.0618,377.44992 L 198.42899,377.44992"
       id="text5479" />
    <path
       style="font-size:24px;font-style:normal;font-weight:normal;fill:black;fill-opacity:1;stroke:none;stroke-width:1px;stroke-linecap:butt;stroke-linejoin:miter;stroke-opacity:1;font-family:DejaVu Serif"
       d="M 433.42841,377.44992 L 431.96356,377.44992 L 437.45966,371.47336 L 434.69403,366.2468 L 433.15888,366.2468 L 433.39325,364.99289 L 436.55731,364.99289 L 439.14716,369.84445 L 443.612,364.99289 L 445.07684,364.99289 L 439.68622,370.85227 L 442.53388,376.20774 L 444.16278,376.20774 L 443.92841,377.44992 L 440.65888,377.44992 L 438.01044,372.48117 L 433.42841,377.44992 M 447.44013,368.56711 L 446.56513,368.56711 L 446.56513,366.48899 C 447.12242,366.19212 447.68231,365.96556 448.24481,365.8093 C 448.81252,365.65306 449.3672,365.57493 449.90888,365.57492 C 451.12241,365.57493 452.08074,365.8692 452.78388,366.45774 C 453.48699,367.04629 453.83855,367.84577 453.83856,368.85617 C 453.83855,369.99681 453.04168,371.36139 451.44794,372.94992 C 451.32293,373.06972 451.22918,373.16086 451.16669,373.22336 L 448.22138,376.16867 L 453.08856,376.16867 L 453.08856,374.73117 L 454.00263,374.73117 L 454.00263,377.44992 L 446.47919,377.44992 L 446.47919,376.59836 L 450.01825,373.06711 C 450.7995,372.28587 451.35679,371.56972 451.69013,370.91867 C 452.02345,370.26243 452.19012,369.57493 452.19013,368.85617 C 452.19012,368.06972 451.98439,367.45514 451.57294,367.01242 C 451.16668,366.56973 450.60418,366.34837 449.88544,366.34836 C 449.14064,366.34837 448.56512,366.53327 448.15888,366.90305 C 447.75262,367.27285 447.51304,367.82754 447.44013,368.56711"
       id="text5489" />
    <path
       style="font-size:24px;font-style:normal;font-weight:normal;fill:black;fill-opacity:1;stroke:none;stroke-width:1px;stroke-linecap:butt;stroke-linejoin:miter;stroke-opacity:1;font-family:DejaVu Serif"
       d="M 50.905207,36.768059 L 53.471613,50.197746 L 61.229426,36.768059 L 59.260676,36.768059 L 59.506769,35.514152 L 64.639582,35.514152 L 64.393488,36.768059 L 62.694269,36.768059 L 53.295832,53.010246 L 51.280207,53.010246 L 48.221613,36.768059 L 46.475519,36.768059 L 46.721613,35.514152 L 53.096613,35.514152 L 52.850519,36.768059 L 50.905207,36.768059"
       id="text5515" />
    <path
       style="font-size:24px;font-style:normal;font-weight:normal;fill:black;fill-opacity:1;stroke:none;stroke-width:1px;stroke-linecap:butt;stroke-linejoin:miter;stroke-opacity:1;font-family:DejaVu Serif"
       d="M 559.39234,379.98609 L 557.92749,379.98609 L 563.42359,374.00952 L 560.65796,368.78296 L 559.1228,368.78296 L 559.35718,367.52905 L 562.52124,367.52905 L 565.11109,372.38062 L 569.57593,367.52905 L 571.04077,367.52905 L 565.65015,373.38843 L 568.4978,378.7439 L 570.12671,378.7439 L 569.89234,379.98609 L 566.6228,379.98609 L 563.97437,375.01734 L 559.39234,379.98609"
       id="text5525" />
  </g>
</svg>

<?xml version="1.0"?>
<svg xmlns:rdf="http://www.w3.org/1999/02/22-rdf-syntax-ns#" xmlns="http://www.w3.org/2000/svg" xmlns:cc="http://web.resource.org/cc/" xmlns:dc="http://purl.org/dc/elements/1.1/" id="svg5423" height="350" width="535" version="1.0">
 <g id="layer1" transform="translate(-42.543 -32.75)">
  <g id="g2084" transform="translate(3.9321 2.764)">
   <path id="path5439" d="m69.5 36.75c-0.016 0.003-2.5 0.944-2.5 317.59v1.25h1.25 498.69v-2.5h-497.44v-276.68-34.754-4.344-0.562z"/>
   <path id="path2090" d="m68.257 46.688l5 5-5-17.5-5 17.5 5-5z" fill-rule="evenodd" stroke="#000" stroke-width=".4pt"/>
   <path id="path2092" d="m556.93 354.33l-5 5 17.5-5-17.5-5 5 5z" fill-rule="evenodd" stroke="#000" stroke-width=".4pt"/>
  </g>
  <path id="path5443" fill="#888a85" d="m73.557 214.11v2.5h1.25 496.06 1.25v-2.5h-1.25-496.06-1.253z"/>
  <path id="path5445" fill="#888a85" d="m192.84 220.36h2.5v-5h-2.5v5zm0 7.5h2.5v-5h-2.5v5zm0 7.5h2.5v-5h-2.5v5zm0 7.5h2.5v-5h-2.5v5zm0 7.5h2.5v-5h-2.5v5zm0 7.5h2.5v-5h-2.5v5zm0 7.5h2.5v-5h-2.5v5zm0 7.5h2.5v-5h-2.5v5zm0 7.5h2.5v-5h-2.5v5zm0 7.5h2.5v-5h-2.5v5zm0 7.5h2.5v-5h-2.5v5zm0 7.5h2.5v-5h-2.5v5zm0 7.5h2.5v-5h-2.5v5zm0 7.5h2.5v-5h-2.5v5zm0 7.5h2.5v-5h-2.5v5zm0 7.5h2.5v-5h-2.5v5zm0 7.5h2.5v-5h-2.5v5zm0 7.5h2.5v-5h-2.5v5zm0 7.5h2.5v-5h-2.5v5z"/>
  <path id="path5447" fill="#888a85" d="m442.31 220.36h2.5v-5h-2.5v5zm0 7.5h2.5v-5h-2.5v5zm0 7.5h2.5v-5h-2.5v5zm0 7.5h2.5v-5h-2.5v5zm0 7.5h2.5v-5h-2.5v5zm0 7.5h2.5v-5h-2.5v5zm0 7.5h2.5v-5h-2.5v5zm0 7.5h2.5v-5h-2.5v5zm0 7.5h2.5v-5h-2.5v5zm0 7.5h2.5v-5h-2.5v5zm0 7.5h2.5v-5h-2.5v5zm0 7.5h2.5v-5h-2.5v5zm0 7.5h2.5v-5h-2.5v5zm0 7.5h2.5v-5h-2.5v5zm0 7.5h2.5v-5h-2.5v5zm0 7.5h2.5v-5h-2.5v5zm0 7.5h2.5v-5h-2.5v5zm0 7.5h2.5v-5h-2.5v5zm0 7.5h2.5v-5h-2.5v5z"/>
  <path id="path5441" d="m72.213 110.33v2.5h0.032 0.406 0.906 5.625 63.968c9.24 0 16 3.12 21.34 8.68 5.35 5.57 9.24 13.66 12.38 23.47 6.28 19.62 9.45 46.02 15.78 72.53s15.86 53.19 35.06 73.25c19.2 20.07 48.09 33.41 92.63 33.41s72.93-13.36 91.56-33.44c18.63-20.07 27.44-46.71 33.31-73.22 5.87-26.5 8.83-52.93 15.44-72.53 3.31-9.8 7.53-17.86 13.38-23.43 5.84-5.58 13.28-8.72 23.46-8.72h72.13 1.25v-2.5h-1.25-72.13c-10.7 0-18.94 3.42-25.21 9.4-6.28 5.99-10.63 14.46-14 24.47-6.76 20.03-9.67 46.42-15.5 72.75s-14.55 52.54-32.69 72.1c-18.14 19.55-45.71 32.62-89.75 32.62s-72.09-13.09-90.81-32.66c-18.72-19.56-28.15-45.73-34.44-72.06s-9.41-52.74-15.81-72.75c-3.2-10-7.24-18.44-13-24.44-5.77-5.99-13.32-9.43-23.13-9.43h-63.968-5.625-0.906-0.406-0.032z"/>
  <path id="text5455" d="m93.632 83.123l2.567 13.43 7.761-13.43h-1.97l0.24-1.253h5.14l-0.25 1.253h-1.7l-9.397 16.243h-2.016l-3.058-16.243h-1.746l0.246-1.253h6.375l-0.246 1.253h-1.946m19.348 19.977c-1.9-0.85-3.33-2.2-4.3-4.039-0.97-1.852-1.45-4.164-1.45-6.938 0-2.781 0.48-5.093 1.45-6.937 0.97-1.852 2.4-3.203 4.3-4.055v1.149c-1.2 0.828-2.07 1.996-2.59 3.504-0.52 1.5-0.79 3.613-0.79 6.339 0 2.719 0.27 4.832 0.79 6.34 0.52 1.5 1.39 2.667 2.59 3.497v1.14m3.26-3.734h-1.47l5.5-5.977-2.77-5.227h-1.53l0.23-1.253h3.17l2.59 4.851 4.46-4.851h1.47l-5.39 5.859 2.84 5.355h1.63l-0.23 1.243h-3.27l-2.65-4.969-4.58 4.969m13.66 3.734v-1.14c1.2-0.83 2.07-1.997 2.59-3.497 0.53-1.508 0.8-3.621 0.8-6.34 0-2.726-0.27-4.839-0.8-6.339-0.52-1.508-1.39-2.676-2.59-3.504v-1.149c1.91 0.852 3.35 2.203 4.31 4.055 0.97 1.844 1.46 4.156 1.46 6.937 0 2.774-0.49 5.086-1.46 6.938-0.96 1.839-2.4 3.189-4.31 4.039"/>
  <path id="text5469" d="m48.7 223.35l0.234-1.24h2.226l2.918-15h-2.226l0.246-1.26h14.086l-0.75 3.89h-1.441l0.468-2.45h-8.039l-1.137 5.86h5.731l0.422-2.19h1.441l-1.125 5.81h-1.441l0.422-2.19h-5.731l-1.418 7.33h8.227l0.469-2.45h1.441l-0.75 3.89h-14.273"/>
  <path id="text5479" d="m184.19 377.45h-1.46l5.49-5.98-2.76-5.22h-1.54l0.24-1.26h3.16l2.59 4.85 4.46-4.85h1.47l-5.39 5.86 2.85 5.36h1.63l-0.24 1.24h-3.27l-2.65-4.97-4.58 4.97m14.24 0v-0.83h2.03v-9.7l-2.35 1.52v-1.02l2.84-1.85h1.08v11.05h2.03v0.83h-5.63"/>
  <path id="text5489" d="m433.43 377.45h-1.47l5.5-5.98-2.77-5.22h-1.53l0.23-1.26h3.17l2.59 4.85 4.46-4.85h1.47l-5.39 5.86 2.84 5.36h1.63l-0.23 1.24h-3.27l-2.65-4.97-4.58 4.97m14.01-8.88h-0.87v-2.08c0.55-0.3 1.11-0.52 1.67-0.68 0.57-0.16 1.13-0.24 1.67-0.24 1.21 0 2.17 0.3 2.87 0.89 0.71 0.59 1.06 1.39 1.06 2.4 0 1.14-0.8 2.5-2.39 4.09-0.13 0.12-0.22 0.21-0.28 0.27l-2.95 2.95h4.87v-1.44h0.91v2.72h-7.52v-0.85l3.54-3.53c0.78-0.78 1.34-1.5 1.67-2.15 0.33-0.66 0.5-1.35 0.5-2.06 0-0.79-0.21-1.4-0.62-1.85-0.4-0.44-0.97-0.66-1.68-0.66-0.75 0-1.32 0.18-1.73 0.55s-0.65 0.93-0.72 1.67"/>
  <path id="text5515" d="m50.905 36.768l2.567 13.43 7.757-13.43h-1.968l0.246-1.254h5.133l-0.247 1.254h-1.699l-9.398 16.242h-2.016l-3.058-16.242h-1.746l0.246-1.254h6.375l-0.246 1.254h-1.946"/>
  <path id="text5525" d="m559.39 379.99h-1.46l5.49-5.98-2.76-5.23h-1.54l0.24-1.25h3.16l2.59 4.85 4.47-4.85h1.46l-5.39 5.86 2.85 5.35h1.63l-0.24 1.25h-3.27l-2.65-4.97-4.58 4.97"/>
 </g>
 <metadata>
  <rdf:RDF>
   <cc:Work>
    <dc:format>image/svg+xml</dc:format>
    <dc:type rdf:resource="http://purl.org/dc/dcmitype/StillImage"/>
    <cc:license rdf:resource="http://creativecommons.org/licenses/publicdomain/"/>
    <dc:publisher>
     <cc:Agent rdf:about="http://openclipart.org/">
      <dc:title>Openclipart</dc:title>
     </cc:Agent>
    </dc:publisher>
   </cc:Work>
   <cc:License rdf:about="http://creativecommons.org/licenses/publicdomain/">
    <cc:permits rdf:resource="http://creativecommons.org/ns#Reproduction"/>
    <cc:permits rdf:resource="http://creativecommons.org/ns#Distribution"/>
    <cc:permits rdf:resource="http://creativecommons.org/ns#DerivativeWorks"/>
   </cc:License>
  </rdf:RDF>
 </metadata>
</svg>
